svgs/microsoft_solitaire.svg

<svg width="192" height="192" viewBox="0 0 192 192" fill="none" xmlns="http://www.w3.org/2000/svg">
<path fill-rule="evenodd" clip-rule="evenodd" d="M60 16C48.9543 16 40 24.9543 40 36V156C40 167.046 48.9543 176 60 176H132C143.046 176 152 167.046 152 156V36C152 24.9543 143.046 16 132 16H60ZM52 36C52 31.5817 55.5817 28 60 28H132C136.418 28 140 31.5817 140 36V156C140 160.418 136.418 164 132 164H60C55.5817 164 52 160.418 52 156V36ZM101.692 54.1026C100.875 51.6526 98.5826 50 96 50C93.4174 50 91.1246 51.6526 90.3079 54.1026C89.7724 55.709 88.2693 57.8104 85.3176 60.8544C83.9746 62.2393 82.4869 63.6694 80.842 65.2505L80.8416 65.2508L80.5917 65.491C78.8768 67.1397 77.0208 68.9296 75.1836 70.8324C67.8852 78.3915 60 88.5994 60 103C60 111.15 64.6452 119.351 71.9476 123.666C77.1822 126.759 83.4736 127.704 90 125.765V140C90 143.314 92.6863 146 96 146C99.3137 146 102 143.314 102 140V125.765C108.526 127.704 114.818 126.759 120.052 123.666C127.355 119.351 132 111.15 132 103C132 88.5994 124.115 78.3915 116.816 70.8324C114.979 68.9296 113.123 67.1397 111.408 65.491L111.159 65.251C109.513 63.6696 108.025 62.2394 106.682 60.8544C103.731 57.8104 102.228 55.709 101.692 54.1026ZM72 103C72 93.4006 77.1148 86.1085 83.8164 79.1676C85.4792 77.4454 87.1857 75.7978 88.9083 74.1418L89.2083 73.8534C90.8061 72.3177 92.4369 70.7504 93.9324 69.2081C94.6191 68.5 95.3158 67.7599 96 66.9879C96.6842 67.7599 97.3809 68.5 98.0676 69.2081C99.5631 70.7503 101.194 72.3176 102.792 73.8532L103.092 74.1418C104.814 75.7978 106.521 77.4454 108.184 79.1676C114.885 86.1085 120 93.4006 120 103C120 106.85 117.645 111.149 113.948 113.334C110.729 115.236 105.847 115.885 99.6 111.2C97.4667 109.6 94.5333 109.6 92.4 111.2C86.1528 115.885 81.2705 115.236 78.0524 113.334C74.3548 111.149 72 106.85 72 103Z" fill="black"/>
</svg>

<svg xmlns="http://www.w3.org/2000/svg" width="192" height="192" fill="none" xmlns:v="https://vecta.io/nano"><path fill-rule="evenodd" d="M60 16c-11.046 0-20 8.954-20 20v120c0 11.046 8.954 20 20 20h72c11.046 0 20-8.954 20-20V36c0-11.046-8.954-20-20-20H60zm-8 20a8 8 0 0 1 8-8h72a8 8 0 0 1 8 8v120a8 8 0 0 1-8 8H60a8 8 0 0 1-8-8V36zm49.692 18.103a6 6 0 0 0-11.384 0c-.535 1.606-2.039 3.708-4.99 6.752-1.343 1.385-2.831 2.815-4.476 4.396h0l-.25.24-5.408 5.341C67.885 78.392 60 88.599 60 103c0 8.15 4.645 16.351 11.948 20.666 5.235 3.093 11.526 4.038 18.052 2.099V140a6 6 0 1 0 12 0v-14.235c6.526 1.939 12.818.994 18.052-2.099C127.355 119.351 132 111.15 132 103c0-14.401-7.885-24.609-15.184-32.168-1.837-1.903-3.693-3.693-5.408-5.341l-.249-.24-4.477-4.397c-2.951-3.044-4.454-5.145-4.99-6.752zM72 103c0-9.599 5.115-16.891 11.816-23.832 1.663-1.722 3.369-3.37 5.092-5.026l.3-.288 4.724-4.645c.687-.708 1.383-1.448 2.068-2.22.684.772 1.381 1.512 2.068 2.22 1.496 1.542 3.126 3.109 4.724 4.645l.3.289 5.092 5.026C114.885 86.109 120 93.401 120 103c0 3.85-2.355 8.149-6.052 10.334-3.219 1.902-8.101 2.551-14.348-2.134a6 6 0 0 0-7.2 0c-6.247 4.685-11.13 4.036-14.348 2.134C74.355 111.149 72 106.85 72 103z" fill="#000"/></svg>
